packages/astro-components-stencil/src/icons/scanner.svg

<svg width="24" height="24" viewBox="0 0 24 24" fill="none" xmlns="http://www.w3.org/2000/svg">
<path fill-rule="evenodd" clip-rule="evenodd" d="M19.8 9.69992L5.15 4.34992C4.63 4.15992 4.05 4.42992 3.85 4.94992C3.66 5.47992 3.93 6.05992 4.45 6.24992L17.6 10.9999H5C3.9 10.9999 3 11.8999 3 12.9999V16.9999C3 18.0999 3.9 18.9999 5 18.9999H19C20.1 18.9999 21 18.0999 21 16.9999V11.4999C21 10.6999 20.5 9.89992 19.8 9.69992ZM7 15.9999H5V13.9999H7V15.9999ZM10 15.9999H18C18.55 15.9999 19 15.5499 19 14.9999C19 14.4499 18.55 13.9999 18 13.9999H10C9.45 13.9999 9 14.4499 9 14.9999C9 15.5499 9.45 15.9999 10 15.9999Z" fill="black"/>
</svg>

<svg xmlns="http://www.w3.org/2000/svg" viewBox="0 0 24 24"><g xmlns="http://www.w3.org/2000/svg" id="scanner" fill-rule="nonzero">
            <path d="M19.8 9.7L5.15 4.35c-.52-.19-1.1.08-1.3.6-.19.53.08 1.11.6 1.3L17.6 11H5c-1.1 0-2 .9-2 2v4c0 1.1.9 2 2 2h14c1.1 0 2-.9 2-2v-5.5c0-.8-.5-1.6-1.2-1.8zM7 16H5v-2h2v2zm11 0h-8c-.55 0-1-.45-1-1s.45-1 1-1h8c.55 0 1 .45 1 1s-.45 1-1 1z"/>
        </g></svg>
